X:2

T:Whistle o'er the Leave o't

M:4/4

L:1/8

S:The Caledonian Muse (1785)

Z:Paul Kinder

K:G

G>DE>G B>A B2|d>eB>g "tr"A>G E2|G>DE>G B>ABg|G<G B>G A2 G2:|

|:de/2f/2 g>d e>d "tr"B2|d>eB>g A>G E2|g>be>g d>eB>g|G<GB>G A2 G2:|

|:G>BA>c B>GA>c|B>GA>E G>B A2|G>BA>c B>dG>B|G<GB>G "tr"A2 G2:|

G/2A/2B/2c/2 dg"tr"ed B2|c>AB>G c>G "tr"E2| BA/2B/2 cB/2c/2 de/2f/2 gf/2e/2|dGBG A2 G2:||

 

WHISTLEBINKIES REEL, THE. Scottish, Reel. R. Wallace, The Glasgow Collection of Bagpipe Music. Green Linnet GLCD1182, The Tannahill Weavers - “Choice Cuts 1987-1996.”

 

WHISTLER, THE. New England, Polka. G Major. Standard tuning. ABB'. Miller & Perron (101 Polkas), 1978; No. 59.

 

WHISTLER AND HIS DOG, THE.  AKA and see “Acrobat’s Reel,” “Baker’s Reel,” “Spit Fire (Reel)” Irish, Reel. Ossian OSS-21, Rose Murphy – “Milltown Lass” (1989. A reissue of the original 1977 Topic recording of east Galway fiddle and melodeon player Murphy).

                       


WHISTLER FROM ROSSLEA, THE. Irish, Reel. G Major. Standard tuning. AA’BB’. Composed by fiddler and composer Ed Reavy (1898-1988, County Cavan/Phila., Pa.). The tune is titled after a fish-selling whistler seen by Reavy at a fair in Rosslea. The whistler had the range of a fiddle or flute and ornamented his melodies in the traditional style. Martin Hayes transformed the tune on his recording to a slower-tempoed, C Minor setting. Reavy (The Collected Compositions of Ed Reavy), No. 36, pg. 38. Green Linnet GLCD 1127, “Martin Hayes” (1993). Outlet SOLP 1033, Josephine Keegan - "Irish Traditional Music" (1977). Popcorn Behavior – “Journeywork” (1997).

